X:27
T:Grouchitsa
O:russia
M:3/4
L:1/8
Q:1/4=120
K:Am
V:1
"Am" [c2A2 E2]"G" [c2A2 E2][d2B2 G2]|"C" [e2c2 G2][e2c2 G2][c'2g2 e2]|"G" [b2g2 d2]"F" [b2g2 d2][a2f2 c2]|"C" [g6e6 c6]|
"G" [b2g2 d2]"F" [b2g2 d2][a2f2 c2]|"G" [g4d4 B4][g2d2 B2]|"F" [a4f4 c4]"G" [g2d2 B2]|"C" [e6c6 G6] |:
"Dm" [f4d4 A4]"C" [g2e2 c2]|"F" [a4f4 c4][c'2a2 f2]|"G" [b4g4 d4]"F" [a2f2 c2]|"C" [g6e6 c6]|
"G" [b2g2 d2]"F" [b2g2 d2][a2f2 c2]|"E" [^g4e4 B4][e2B2 ^G2]|"Am" [a2e2 c2][a2e2 c2][a2e2 c2]|1 "A" z^c eg fe :|2
"Am" [a6e6 c6]||
